X:1
T:Title
%%score 1 { 2 | 3 }
L:1/8
Q:1/4=110
M:2/2
K:Bb
V:1 treble nm="Grand Piano, Soprano"
V:2 bass nm="Choir Pad, Belén, Louis Le Saint, 1920"
V:3 bass 
V:1
 F2 [DB]2 [DB]2 [EB]2 | [FB]2 [GB]4 [FA]2 | [EG]2 [DF]2 [EG]2 [DF]2 | [CE]2 [B,D]6 | %4
w: By~Louis~Le~Saint,~1920 * * *||||
 F2 [DB]2 [DB]2 [GB]2 | [GB]2 [FB]4 [Fc]2 | [Fd]2 [Fc]2 [FA]2 [=EA]2 | [=EG]2 F6 | %8
w: ||||
 F2 [=EG]2 [EG]2 [_EA]2 | [EA]2 [FB]4 [DF]2 | [FG]2 [FA]2 [FA]2 [FB]2 | [FB]2 [Fc]6 | %12
w: ||||
 F2 [=EG]2 [EG]2 [_EA]2 | [EA]2 [FB]4 [Fc]2 | [Fd]2 [Fe]2 [Fe]2 [Fd]2 | [Fd]2 [Fc]6 | %16
w: ||||
 F2 [DB]2 [DB]2 [EB]2 | [FB]2 [GB]4 [FA]2 | [EG]2 [DF]2 [EG]2 [DF]2 | [CE]2 [B,D]6 | %20
w: ||||
 [DF]2 [FB]2 [FB]2 [Fc]2 | [Fd]2 [Fe]4 [Fd]2 | [Gc]2 [FB][Fd]- [Fd]2 [Ed][Ec]- | [Ec]2 [DB]6- | %24
w: ||||
 [DB]4 z4 |] %25
w: |
V:2
 F,2 F,2 F,2 F,2 | B,2 B,4 B,2 | B,2 B,2 F,2 G,2 | A,2 B,6 | F,2 F,2 B,2 B,2 | B,2 B,4 A,2 | %6
 B,2 A,2 C2 C2 | B,2 A,6 | A,2 B,2 B,2[K:treble] C2 | C2 D4 B,2 | B,2 C2 C2[K:bass] G,2 | G,2 A,6 | %12
 A,2 B,2 B,2[K:treble] C2 | C2 D4 A,2 | B,2 C2 C2[K:bass] B,2 | B,2 A,6 | F,2 F,2 F,2 F,2 | %17
 B,2 B,4 B,2 | B,2 B,2 F,2 G,2 | A,2 B,6 | B,2 B,2 B,2 A,2 | B,2 C4 B,2 | E2 DB,- B,2 A,A,- | %23
 A,2 F,6- | F,4 z4 |] %25
V:3
 z2 B,,2 B,,2 C,2 | D,2 E,4 E,2 | E,2 F,2 z2 F,2 | F,2 B,,6 | z2 B,,2 B,,2 E,2 | E,2 D,4 C,2 | %6
 B,,2 C,2 C,2 C,2 | C,2 F,6 | F,2 F,2 F,2 F,2 | F,2 F,4 F,2 | F,2 F,2 F,2 F,2 | F,2 F,6 | %12
 F,2 F,2 F,2 F,2 | F,2 F,4 F,2 | F,2 F,2 F,2 F,2 | F,2 F,6 | z2 B,,2 B,,2 C,2 | D,2 E,4 E,2 | %18
 E,2 F,2 z2 F,2 | F,2 B,,6 | B,,2 D,2 D,2 C,2 | B,,2 A,,4 B,,2 | E,2 F,F,- F,2 F,F,- | F,2 B,,6- | %24
 B,,4 z4 |] %25

